IMB-X-Files/The-Ambassadors-Assets/6616e2ee96cf5b7cff1a3f38_adn-logo.svg

<svg fill="none" height="53" viewBox="0 0 243 53" width="243" xmlns="http://www.w3.org/2000/svg" xmlns:xlink="http://www.w3.org/1999/xlink"><clipPath id="a"><path d="m62 6h119v40h-119z"/></clipPath><g clip-path="url(#a)" fill="#fff"><path d="m113.827 25.0381c0 1.3102-1.283 1.5776-3.396 1.9787-3.423.6685-5.642 1.6044-5.642 4.5992 0 2.2997 1.711 3.904 4.492 3.904 2.113 0 3.664-.8289 4.519-2.0322h.054c.267 1.337.962 1.8718 2.46 1.8718.535 0 .989-.0535 1.631-.2941v-1.337c-1.096.1069-1.31-.4011-1.31-1.3637v-6.4978c0-3.6366-2.246-4.7864-5.268-4.7864-4.118 0-5.802 2.0589-5.936 4.6794h2.727c.134-1.7648.963-2.46 3.209-2.46 1.872 0 2.46.7487 2.46 1.7381zm-3.931 8.2625c-1.524 0-2.273-.6952-2.273-1.952 0-1.3904 1.017-2.0589 3.343-2.567 1.31-.2674 2.407-.5882 2.861-.9091v2.0589c0 2.2194-1.604 3.3692-3.931 3.3692zm19.291-17.3006v7.1128h-.054c-.722-1.0428-2.059-2.0322-4.171-2.0322-3.503 0-6.097 2.7274-6.097 7.2197s2.594 7.2197 6.097 7.2197c2.112 0 3.449-1.0428 4.171-1.9787h.054v1.5776h2.807v-19.1189zm-3.744 17.2204c-2.46 0-3.77-2.2461-3.77-4.9201s1.31-4.9201 3.77-4.9201c2.3 0 3.717 1.8718 3.717 4.9201 0 3.0216-1.417 4.9201-3.717 4.9201zm15.388 2.2996c-4.279 0-6.872-2.9681-6.872-7.2197s2.593-7.2197 6.872-7.2197c4.278 0 6.872 2.9681 6.872 7.2197s-2.594 7.2197-6.872 7.2197zm0-2.2996c2.674 0 4.064-2.1124 4.064-4.9201 0-2.8344-1.39-4.9201-4.064-4.9201s-4.065 2.0857-4.065 4.9201c0 2.8077 1.391 4.9201 4.065 4.9201zm16.166-12.1398c-2.353 0-3.771 1.0696-4.493 2.1392h-.053v-1.7649h-2.808v13.664h2.808v-8.316c0-2.0322 1.39-3.3425 3.556-3.3425 1.926 0 2.701 1.1766 2.701 3.0216v8.6369h2.834v-9.4391c0-3.1285-2.005-4.5992-4.545-4.5992zm8.691-1.9253c.828 0 1.604-.5348 1.604-1.4974 0-.9627-.776-1.4707-1.604-1.4707-.776 0-1.578.508-1.578 1.4707 0 .9626.802 1.4974 1.578 1.4974zm-1.391 2.2996v13.664h2.808v-13.664zm11.572 5.4015c-1.979-.4546-3.503-.5616-3.503-1.952 0-.9627.909-1.6044 2.594-1.6044 2.192 0 2.727 1.0963 2.914 2.1659h2.728c-.187-2.3798-1.952-4.3853-5.669-4.3853-3.423 0-5.402 1.7916-5.402 4.0377 0 3.1018 2.942 3.5296 5.108 4.0377 2.005.4813 3.636.615 3.636 2.3263 0 .8557-.829 1.8183-2.781 1.8183-2.888 0-3.529-1.2567-3.663-2.7274h-2.727c.133 2.8879 2.032 4.9468 6.444 4.9468 3.316 0 5.562-1.6311 5.562-4.2516 0-3.2622-2.728-3.8238-5.241-4.412z"/><path d="m82.4991 25.0494c0-4.2842-3.898-7.7572-3.898-7.7572s-3.898 3.473-3.898 7.7572c0 4.2841 3.898 7.757 3.898 7.757s3.898-3.4729 3.898-7.757z"/><path d="m70.7161 27.3929c3.7978 2.1421 4.9274 7.1764 4.9274 7.1764s-5.0276 1.5614-8.8254-.5807c-3.7977-2.142-4.9275-7.1764-4.9275-7.1764s5.0277-1.5613 8.8255.5807z"/><path d="m86.49 27.3929c-3.7979 2.1421-4.9275 7.1764-4.9275 7.1764s5.0276 1.5614 8.8254-.5807c3.7978-2.142 4.9275-7.1764 4.9275-7.1764s-5.0277-1.5613-8.8254.5807z"/></g></svg>

<svg width="243" height="53" viewBox="0 0 243 53" fill="none" xmlns="http://www.w3.org/2000/svg">
<g clip-path="url(#clip0_3773_1384)">
<path d="M113.827 25.0381C113.827 26.3483 112.544 26.6157 110.431 27.0168C107.008 27.6853 104.789 28.6212 104.789 31.616C104.789 33.9157 106.5 35.52 109.281 35.52C111.394 35.52 112.945 34.6911 113.8 33.4878H113.854C114.121 34.8248 114.816 35.3596 116.314 35.3596C116.849 35.3596 117.303 35.3061 117.945 35.0655V33.7285C116.849 33.8354 116.635 33.3274 116.635 32.3648V25.867C116.635 22.2304 114.389 21.0806 111.367 21.0806C107.249 21.0806 105.565 23.1395 105.431 25.76H108.158C108.292 23.9952 109.121 23.3 111.367 23.3C113.239 23.3 113.827 24.0487 113.827 25.0381ZM109.896 33.3006C108.372 33.3006 107.623 32.6054 107.623 31.3486C107.623 29.9582 108.64 29.2897 110.966 28.7816C112.276 28.5142 113.373 28.1934 113.827 27.8725V29.9314C113.827 32.1508 112.223 33.3006 109.896 33.3006ZM129.187 16V23.1128H129.133C128.411 22.07 127.074 21.0806 124.962 21.0806C121.459 21.0806 118.865 23.808 118.865 28.3003C118.865 32.7926 121.459 35.52 124.962 35.52C127.074 35.52 128.411 34.4772 129.133 33.5413H129.187V35.1189H131.994V16H129.187ZM125.443 33.2204C122.983 33.2204 121.673 30.9743 121.673 28.3003C121.673 25.6263 122.983 23.3802 125.443 23.3802C127.743 23.3802 129.16 25.252 129.16 28.3003C129.16 31.3219 127.743 33.2204 125.443 33.2204ZM140.831 35.52C136.552 35.52 133.959 32.5519 133.959 28.3003C133.959 24.0487 136.552 21.0806 140.831 21.0806C145.109 21.0806 147.703 24.0487 147.703 28.3003C147.703 32.5519 145.109 35.52 140.831 35.52ZM140.831 33.2204C143.505 33.2204 144.895 31.108 144.895 28.3003C144.895 25.4659 143.505 23.3802 140.831 23.3802C138.157 23.3802 136.766 25.4659 136.766 28.3003C136.766 31.108 138.157 33.2204 140.831 33.2204ZM156.997 21.0806C154.644 21.0806 153.226 22.1502 152.504 23.2198H152.451V21.4549H149.643V35.1189H152.451V26.8029C152.451 24.7707 153.841 23.4604 156.007 23.4604C157.933 23.4604 158.708 24.637 158.708 26.482V35.1189H161.542V25.6798C161.542 22.5513 159.537 21.0806 156.997 21.0806ZM165.688 19.1553C166.516 19.1553 167.292 18.6205 167.292 17.6579C167.292 16.6952 166.516 16.1872 165.688 16.1872C164.912 16.1872 164.11 16.6952 164.11 17.6579C164.11 18.6205 164.912 19.1553 165.688 19.1553ZM164.297 21.4549V35.1189H167.105V21.4549H164.297ZM175.869 26.8564C173.89 26.4018 172.366 26.2948 172.366 24.9044C172.366 23.9417 173.275 23.3 174.96 23.3C177.152 23.3 177.687 24.3963 177.874 25.4659H180.602C180.415 23.0861 178.65 21.0806 174.933 21.0806C171.51 21.0806 169.531 22.8722 169.531 25.1183C169.531 28.2201 172.473 28.6479 174.639 29.156C176.644 29.6373 178.275 29.771 178.275 31.4823C178.275 32.338 177.446 33.3006 175.494 33.3006C172.606 33.3006 171.965 32.0439 171.831 30.5732H169.104C169.237 33.4611 171.136 35.52 175.548 35.52C178.864 35.52 181.11 33.8889 181.11 31.2684C181.11 28.0062 178.382 27.4446 175.869 26.8564Z" fill="white"/>
<path d="M82.4991 25.0494C82.4991 20.7652 78.6011 17.2922 78.6011 17.2922C78.6011 17.2922 74.7031 20.7652 74.7031 25.0494C74.7031 29.3335 78.6011 32.8064 78.6011 32.8064C78.6011 32.8064 82.4991 29.3335 82.4991 25.0494Z" fill="white"/>
<path d="M70.7161 27.3929C74.5139 29.535 75.6435 34.5693 75.6435 34.5693C75.6435 34.5693 70.6159 36.1307 66.8181 33.9886C63.0204 31.8466 61.8906 26.8122 61.8906 26.8122C61.8906 26.8122 66.9183 25.2509 70.7161 27.3929Z" fill="white"/>
<path d="M86.49 27.3929C82.6921 29.535 81.5625 34.5693 81.5625 34.5693C81.5625 34.5693 86.5901 36.1307 90.3879 33.9886C94.1857 31.8466 95.3154 26.8122 95.3154 26.8122C95.3154 26.8122 90.2877 25.2509 86.49 27.3929Z" fill="white"/>
</g>
<defs>
<clipPath id="clip0_3773_1384">
<rect width="119" height="40" fill="white" transform="translate(62 6)"/>
</clipPath>
</defs>
</svg>
